X:1
T:Amor da che tu voi
T:Tiburtio Massaino
T:Amor da che tu voi
T:Prima parte
C:Tiburtio Massaino
%%score [ 1 2 3 4 ]
L:1/8
Q:1/4=96
M:4/2
K:C
V:1 treble nm="Soprano" snm="S"
V:2 alto2 nm="Alto" snm="A"
V:3 alto nm="Tenor" snm="T"
V:4 tenor nm="Bass" snm="B"
V:1
 z16 | z16 | z4 z2 d2 c6 B2 | c2 d2 e6 e2 d2 e2 | c4 B4 z8 | z8 z2 A2 B4- | B2 A2 B2 c2 d8 | %7
w: ||A- mor da|che tu voi pur ch'io m'ar-|ri- schi,|A- mor|_ da che tu voi,|
 z4 z2 d2 c6 B2 | c2 d2 e6 e2 d2 e2 | c4 B2 B4 B2 B4 | A2 c2 B4 c2 c2 c4 | c2 G2 A2 B2 c4 B2 B2 | %12
w: A- mor da|che tu voi pur ch'io m'ar-|ri- schi, In u- dir|e ve- de- re Si- re-|ne e Ba- si- li- schi, e|
 c2 d2 e3 d/c/ d2 e2 d4 | c4 z4 z8 | z2 c4 B2 c4 A2 d2 | G4 A4 z4 c3 B | A4 A2 G2 A3 BcBcd | %17
w: Ba- si- li- * * * * *|schi,|Fam- mi gra- tia si-|gno- re, Fam- mi|gra- tia si- gno- * * * * *|
 e4 A2 f2 e2 f3 f e2 | d4 d4 z4 z2 B2- | B2 B2 B4 c3 B A4- | A2 A2 B2 B2 c4 c4 | z16 | %22
w: * re, Fam- mi gra- tia si-|gno- re, S'e-|* gli a- vien ch'io mi strugg'|_ a lo splen- do- re,||
 z4 z2 d2 c4 A4 | G2 F2 E4 D2 d2 c2 A2 | c3 d e4 d2 d4 c2- | c2 A2 c2 G2 A3 B c3 d | e4 d4 z8 | %27
w: Di duo oc-|chi se- re- ni, Et ch'io sia|pre- * * da, Et ch'io|_ sia pre- da a un ra- gio- nar ac-|cor- to,|
 z2 d2 c2 A2 c2 c2 B4 | A4 z2 A2 B2 c4 c2- | c2 A2 c4 B2 A4 G2 | G2 G4 F2 E8 | E2 e2 c3 d e4 d4 | %32
w: a un ra- gio- nar ac- cor-|to, Che chi n'ha col-|* pa cre- da, Che chi|n'ha col- pa cre-|da, Che per u- dir et|
 c4 B4 c6 d2 | e4 d4 z4 c4 | A6 B2 c2 B2 A2 G2 | F4 E4 A6 G2 | c4 B4 A8 | B16- | B16 |] %39
w: per ve- der sia|mor- to, Che|per u- dir _ _ _|_ et per ve-|der sia mor-|to.|_|
V:2
 z16 | z8 z4 D4 | E6 D2 E2 F2 G4 | F4 E3 F G4 G4 | z8 z4 G4 | G4 D2 E4 F2 E2 D2 | E2 ^F2 G6 FE F4 | %7
w: |A-|mor da che tu voi|pur ch'io m'ar- ri- schi,|A-|mor da che tu voi pur|ch'io m'ar- ri- * * *|
 G8 z8 | z8 z4 z2 C2- | C2 C2 D4 D2 D2 E4 | C2 G2 G6 F2 E4- | E2 E2 E2 G2 A4 B2 G2 | %12
w: schi,|In|_ u- dir e ve- de-|re Si- re- * ne|_ e Ba- si- li- schi, e|
 A2 B2 c4 BA G4 D2 | E3 F G8 G4 | z8 z2 C4 B,2 | C4 A,3 B, C4 C4 | z2 F4 E2 D4 E2 A2 | %17
w: Ba- si- li- * * schi, e|Ba- si- li- schi,|Fam- mi|gra- tia si- gno- re,|Fam- mi gra- tia si-|
 G4 F2 A4 A2 G4 | _B6 B2 A2 G4 D2- | D2 D2 G4 C2 C2 D2 D2 | D8 E8 | z2 D2 E4 F4 E2 D2 | %22
w: gno- re, S'e- gli a- vien|ch'io mi strugg' a lo|_ splen- do- re, a lo splen-|do- re,|Di duo oc- chi se-|
 ^C4 D2 A2 A4 c4 | c2 A2 A4 A8 | z2 A2 G2 E2 G4 F2 E2- | E2 D2 E2 C2 F4 E2 A2 | G2 E2 G4 F4 E3 F | %27
w: re- ni, Di duo oc-|chi se- re- ni,|Et ch'io sia pre- da a un ra-|* gio- nar ac- cor- to, Et|ch'io sia pre- da a un ra- gio-|
 G2 D2 F4 E8 | z4 ^F4 G6 A2 | A2 F2 G4 G2 F2 E4 | D2 E2 E2 D3 CB,A, B,4 | A,4 z2 C2 A,4 B,4 | %32
w: nar ac- cor- to,|Che chi n'ha|col- pa cre- da, Che chi|n'ha col- pa cre- * * * *|da, Che per u-|
 C2 D2 E2 D2 E2 F2 G4 | z2 c2 B4 G4 A4- | A4 F4 G4 C4 | c12 B4 | A2 G2 G6 ^FE F4 | G16- | G16 |] %39
w: dir _ _ _ _ _ _|Che per u- dir|_ et per ve-|der sia|mor- * * * * *|to.|_|
V:3
 z16 | G,8 B,6 D2 | C4 B,4 A,4 G,4 | A,3 B, C4 G,3 A, B,4 | z8 z2 D2 E3 D | E3 F G4 z8 | z8 D8 | %7
w: |A- mor da|che tu voi pur|ch'io m'ar- ri- schi, _ _|A- mor da|che tu voi,|A-|
 E6 D2 E2 F2 G4 | F4 E3 F G4 G4 | z2 G4 G2 G4 G4 | E4 D4 E4 z2 G2 | G4 C2 D2 E3 F G4 | E8 z8 | %13
w: mor da che tu voi|pur ch'io m'ar- ri- schi,|In u- dir e|ve- de- re Si-|re- ne e Ba- si- li-|schi,|
 z2 C4 B,2 C4 G,2 D2 | E4 D4 z4 F4- | F2 E2 F4 E2 A2 G4 | F2 C4 B,2 A,4 G,2 F,2 | E,4 D,4 z8 | %18
w: Fam- mi gra- tia si-|gno- re, Fam-|* mi gra- tia si- gno-|re, Fam- mi gra- tia si-|gno- re,|
 z2 D4 D2 D4 B,2 B,2 | B,4 E8 ^F4- | F4 G8 A4 | A4 z4 z8 | z4 D4 E4 F4 | E2 D2 ^C4 D4 z4 | z16 | %25
w: S'e- gli a- vien ch'io mi|strugg' a lo|_ splen- do-|re,|Di duo oc-|chi se- re- ni,||
 z8 z2 D2 C2 A,2 | C4 B,4 A,3 B, C2 A,2 | _B,4 A,4 z8 | z2 D4 D2 D2 E4 E2 | F4 E2 E4 C2 C4 | %30
w: Et ch'io sia|pre- da a un ra- gio- nar ac-|cor- to,|Che chi n'ha col- pa|cre- da, Che chi n'ha|
 B,2 C2 A,8 ^G,4 | z16 | z4 G8 E4- | E2 F2 G2 F2 E2 D2 C4 | z4 D4 E4 A,4 | A6 GF E4 E4- | %36
w: col- pa cre- da,||Che per|_ u- dir _ _ _ _|et per ve-|der _ _ _ sia|
 E4 E8 D2 C2 | D16 | D16 |] %39
w: _ mor- * *||to.|
V:4
 z16 | z16 | z16 | z8 z4 G,4 | A,6 G,2 A,2 B,2 C4- | C2 C2 B,2 C2 A,4 G,4 | z4 G,4 B,6 D2 | %7
w: |||A-|mor da che tu voi|_ pur ch'io m'ar- ri- schi,|A- mor da|
 C4 B,4 A,4 G,4 | A,3 B, C4 G,4 z4 | z4 G,6 G,2 E,4 | A,2 E,2 G,4 C,4 C4 | C6 B,2 A,4 E,4 | %12
w: che tu voi pur|ch'io m'ar- ri- schi,|In u- dir|e ve- de- re Si-|re- ne e Ba- si-|
 A,8 G,2 C2 C2 B,2 | A,4 G,4 z2 C4 B,2 | C4 G,4 E,2 F,3 E, D,2 | C,4 z4 z2 F,4 E,2 | %16
w: li- schi, e Ba- si-|li- schi, Fam- mi|gra- tia si- gno- * *|re, Fam- mi|
 F,4 D,2 E,2 F,4 E,2 C2- | C2 B,2 D4 A,3 B, C4 | G,8 z2 G,4 G,2 | G,4 E,2 E,2 A,4 D,4 | %20
w: gra- tia si- gno- re, Fam-|* mi gra- tia si- gno-|re, S'e- gli a-|vien ch'io mi strug- ga|
 z2 D2 G,2 G,2 C4 A,4 | z2 D2 C4 A,4 G,2 F,2 | E,4 D,2 D,2 A,4 F,4 | C,2 D,2 A,4 D,4 z2 D2 | %24
w: a lo splen- do- re,|Di duo oc- chi se-|re- ni, Di duo oc-|chi se- re- ni, Et|
 C2 A,2 C4 B,4 A,3 G, | F,2 F,2 E,4 D,4 z4 | z16 | z16 | z4 D,4 G,2 C4 A,2- | %29
w: ch'io sia pre- da a un ra- gio-|nar ac- cor- to,|||Che chi n'ha col-|
 A,2 D2 C4 G,2 A,4 E,2 | G,2 C,4 D,2 E,4 E,4 | z16 | z8 C8 | A,4 B,4 C2 B,2 A,2 G,2 | %34
w: * pa cre- da, Che chi|n'ha col- pa cre- da,||Che|per u- dir _ _ _|
 F,2 E,2 D,4 C,4 F,4- | F,2 G,2 A,8 E,4 | A,16 | G,16- | G,16 |] %39
w: _ _ _ et per|_ ve- der sia|mor-|to.|_|

